X:13
T:Polska fr{\aa}n Blackstad
R:sl-polska
S:fr{\aa}n Blackstad, Tjust, Sm{\aa}land
A:Sm{\aa}land
Z:id:hn-sp-13
M:3/4
L:1/16
K:Am
e2ea e3f efed|cdcB A2AB cBcd|e2e^f g2ga g2f2|e2ed e^fed e4:|
|:e2=fg a3g f2e2|d2ef g2gf efed|c2de f/g/f/e/fe d2c2|B/c/B/A/BA ^GABG E4|
A3B cBcB c{Bc}BA=G|ABcd edef e2e2|e2ae d2c2 {Bc}B2A2|cBA^G A8:|

